X:24
T:My Love She's But a Lassie Yet
C:arr. Carlo Minasi
M:2/4
L:1/8
B:Chappell's One Hundred Scotch Melodies
B:Arranged for the Concertina by Carlo Minasi
Q:"Allegretto  "1/4=120
Z:Peter Dunk 2012
K:D
!p!B/c/|dLDLFLA|L[dAF].D.D (B/c/)|\
d(DFA)|eEE (B/c/)|[dAFD]LDLFLA|\
[dBG]Lg(f>e)|(d/c/B/A/) B>c|LdDD||
%
!mf!(fg)|(ag)(ge)|(fd).d ([f/d/][g/e/])|\
([af][fd])([ge]>[fd])|([eA]E.E) ([f/d/][g/e/]|\
[af][fd])([ge][ecA])|([fd][dF])([ecA]>c)!f!|\
(d/c/B/A/) B>c|LdDD||

